dist/img/sprites/company-insurance-4.svg

<svg width="239" height="102" viewBox="0 0 239 102" xmlns="http://www.w3.org/2000/svg">
<path d="M238.819 75.9951H0.332031V79.6265H238.819V75.9951Z" />
<path d="M6.33132 100.894H4.74977L0.332031 88.1263H2.47905L5.54497 97.4124L8.61971 88.1263H10.7491L6.33132 100.894ZM12.6399 88.1263H14.6632V100.894H12.6399V88.1263ZM18.2062 100.894V88.1263H26.7236V89.8934H20.2207V93.622H25.7694V95.3891H20.2207V99.2237H26.7236V100.991L18.2062 100.894ZM37.7238 100.894L31.539 91.9079V100.894H29.551V88.1263H31.3976L37.5824 97.0943V88.1263H39.6058V100.894H37.7238ZM51.3039 100.894L45.1191 91.9079V100.894H43.1223V88.1263H44.9689L51.1537 97.0943V88.1263H53.1682V100.894H51.3039ZM64.3451 100.894L63.4616 98.3313H58.1603L57.2767 100.894H55.112L59.9981 88.1263H61.6238L66.5098 100.894H64.3451ZM60.8109 91.0155L58.7346 96.6791H62.8342L60.8109 91.0155ZM72.942 88.1263H74.9654V100.894H72.9774L72.942 88.1263ZM86.6812 100.894L80.4964 91.9079V100.894H78.5349V88.1263H80.3904L86.5752 97.0943V88.1263H88.5985V100.894H86.6812ZM95.6139 101C94.7532 101.063 93.8888 100.946 93.0762 100.655C92.2637 100.364 91.5209 99.9069 90.8957 99.312L92.2476 98.0397C92.6991 98.4676 93.2347 98.7969 93.8203 99.0068C94.4059 99.2167 95.0287 99.3026 95.6492 99.259C97.4163 99.259 98.4059 98.5433 98.4059 97.3064C98.4222 97.0599 98.3831 96.8129 98.2913 96.5835C98.1996 96.3542 98.0576 96.1483 97.8758 95.9811C97.4661 95.6394 96.9513 95.4491 96.4179 95.4421L94.8452 95.23C93.9202 95.1451 93.0411 94.7885 92.3183 94.2051C91.9878 93.8945 91.7295 93.5151 91.5615 93.0937C91.3936 92.6724 91.3202 92.2193 91.3464 91.7665C91.3464 89.54 93.0339 88.0203 95.7641 88.0203C96.515 87.9756 97.2673 88.0807 97.9771 88.3294C98.687 88.5782 99.3404 88.9657 99.8991 89.4693L98.6091 90.6886C97.8115 89.9893 96.7698 89.6336 95.7111 89.699C94.1384 89.699 93.2725 90.5826 93.2725 91.6958C93.2627 91.9191 93.3037 92.1417 93.3925 92.3468C93.4812 92.5519 93.6154 92.7341 93.7849 92.8798C94.2208 93.2071 94.7364 93.4115 95.2781 93.4718L96.7978 93.6838C97.7058 93.7425 98.5746 94.0753 99.2895 94.6381C99.6578 94.9696 99.9462 95.3804 100.133 95.8396C100.32 96.2987 100.4 96.7941 100.367 97.2887C100.367 99.6389 98.3706 101.035 95.5786 101.035M107.692 101.035C104.979 101.035 102.921 99.2679 102.921 96.6172V88.1263H104.935V96.5023C104.975 97.2076 105.284 97.8709 105.797 98.3561C106.31 98.8413 106.99 99.1116 107.696 99.1116C108.403 99.1116 109.082 98.8413 109.596 98.3561C110.109 97.8709 110.418 97.2076 110.458 96.5023V88.1263H112.543V96.5907C112.543 99.2414 110.466 101.008 107.754 101.008M123.234 100.902L120.433 95.5393H117.906V100.92H115.882V88.1263H121.051C123.578 88.1263 125.186 89.6814 125.186 91.8549C125.207 92.6402 124.954 93.4082 124.47 94.0272C123.986 94.6462 123.303 95.0777 122.536 95.2477L125.602 100.894L123.234 100.902ZM120.892 89.8757H117.897V93.8694H120.892C122.244 93.8694 123.163 93.136 123.163 91.8814C123.165 91.5941 123.106 91.3097 122.989 91.0473C122.872 90.7849 122.7 90.5507 122.485 90.3606C122.27 90.1704 122.016 90.0287 121.741 89.945C121.467 89.8614 121.177 89.8378 120.892 89.8757ZM135.833 100.902L134.949 98.3401H129.648L128.765 100.902H126.591L131.477 88.1351H133.112L137.998 100.902H135.833ZM132.299 91.0243L130.222 96.6879H134.322L132.299 91.0243ZM148.061 100.902L141.876 91.9167V100.902H139.933V88.1263H141.788L147.973 97.0943V88.1263H149.996V100.894L148.061 100.902ZM157.78 101.008C156.469 101.04 155.198 100.55 154.246 99.6478C152.939 98.3931 152.956 96.9971 152.956 94.5144C152.956 92.0316 152.956 90.6444 154.246 89.3898C154.716 88.9412 155.271 88.5901 155.877 88.3566C156.484 88.1231 157.131 88.0118 157.78 88.0291C158.472 88.0095 159.16 88.1328 159.801 88.3913C160.443 88.6497 161.024 89.0378 161.509 89.5311L160.157 90.8388C159.864 90.4958 159.5 90.2215 159.089 90.0352C158.678 89.8489 158.231 89.7552 157.78 89.7609C157.418 89.7529 157.058 89.8176 156.721 89.9511C156.384 90.0846 156.077 90.2843 155.819 90.5384C155.165 91.2187 155.033 91.9521 155.033 94.5144C155.033 97.0767 155.165 97.8188 155.819 98.4992C156.078 98.752 156.385 98.9504 156.722 99.0824C157.059 99.2145 157.419 99.2775 157.78 99.2679C158.232 99.2753 158.679 99.1825 159.09 98.9961C159.501 98.8097 159.865 98.5343 160.157 98.1899L161.509 99.5064C161.024 99.9998 160.443 100.388 159.801 100.646C159.16 100.905 158.472 101.028 157.78 101.008ZM164.274 100.902V88.1263H172.801V89.8934H166.298V93.622H171.846V95.3891H166.298V99.2237H172.801V100.991L164.274 100.902ZM188.13 99.5418C187.177 100.464 185.908 100.989 184.582 101.009C183.255 101.029 181.971 100.542 180.991 99.6478C179.684 98.3931 179.701 96.9971 179.701 94.5144C179.701 92.0316 179.701 90.6444 180.991 89.3898C181.46 88.9388 182.014 88.5861 182.621 88.3524C183.228 88.1187 183.875 88.0088 184.525 88.0291C185.277 87.9988 186.027 88.1334 186.721 88.4234C187.416 88.7134 188.038 89.1518 188.546 89.7079L187.176 91.0243C186.856 90.6296 186.452 90.3113 185.994 90.0927C185.535 89.8741 185.033 89.7608 184.525 89.7609C184.158 89.7556 183.793 89.8232 183.452 89.9597C183.111 90.0961 182.8 90.2988 182.537 90.5561C181.884 91.2364 181.751 91.9521 181.751 94.5144C181.751 97.0767 181.884 97.8188 182.537 98.4992C183.106 99.0152 183.853 99.2907 184.621 99.2676C185.389 99.2445 186.118 98.9248 186.655 98.3755C187.125 97.8068 187.359 97.0794 187.309 96.3433V95.6453H184.525V93.9931H189.332V95.9192C189.398 96.5715 189.328 97.2304 189.125 97.8541C188.923 98.4777 188.593 99.0524 188.157 99.5418M199.643 100.902L196.78 95.5393H194.253V100.92H192.23V88.1263H197.363C199.89 88.1263 201.498 89.6814 201.498 91.8549C201.517 92.6398 201.263 93.4069 200.78 94.0256C200.297 94.6443 199.614 95.0762 198.848 95.2477L201.914 100.894L199.643 100.902ZM197.31 89.8757H194.315V93.8694H197.31C197.595 93.9073 197.884 93.884 198.159 93.801C198.434 93.718 198.688 93.5773 198.904 93.3882C199.12 93.1992 199.293 92.9661 199.411 92.7047C199.53 92.4433 199.591 92.1596 199.591 91.8726C199.591 91.5855 199.53 91.3018 199.411 91.0404C199.293 90.779 199.12 90.546 198.904 90.3569C198.688 90.1678 198.434 90.0271 198.159 89.9441C197.884 89.8611 197.595 89.8378 197.31 89.8757ZM212.384 99.6389C211.432 100.542 210.161 101.032 208.849 101C208.2 101.019 207.552 100.909 206.945 100.675C206.339 100.441 205.784 100.089 205.315 99.6389C204.008 98.3843 204.025 96.9883 204.025 94.5055C204.025 92.0228 204.025 90.6356 205.315 89.3809C205.783 88.9287 206.337 88.5752 206.944 88.3415C207.551 88.1077 208.199 87.9985 208.849 88.0203C209.499 88.0025 210.146 88.1135 210.753 88.3471C211.359 88.5806 211.914 88.932 212.384 89.3809C213.691 90.6356 213.656 92.0316 213.656 94.5055C213.656 96.9795 213.656 98.3843 212.384 99.6389ZM210.846 90.5472C210.312 90.0368 209.602 89.752 208.863 89.752C208.124 89.752 207.413 90.0368 206.879 90.5472C206.216 91.2276 206.093 91.9432 206.093 94.5055C206.093 97.0678 206.216 97.7923 206.879 98.4727C207.416 98.9771 208.126 99.2579 208.863 99.2579C209.6 99.2579 210.309 98.9771 210.846 98.4727C211.5 97.7923 211.633 97.0767 211.633 94.5055C211.633 91.9344 211.5 91.2276 210.846 90.5472ZM221.219 101C218.507 101 216.448 99.2325 216.448 96.5819V88.1263H218.462V96.5023C218.502 97.2076 218.811 97.8709 219.324 98.3561C219.838 98.8413 220.517 99.1116 221.224 99.1116C221.93 99.1116 222.61 98.8413 223.123 98.3561C223.636 97.8709 223.945 97.2076 223.985 96.5023V88.1263H226.008V96.5907C226.008 99.2414 223.932 101.008 221.219 101.008M234.393 95.8839H231.362V100.902H229.339V88.1263H234.393C236.999 88.1263 238.669 89.7785 238.669 91.9962C238.669 94.214 236.999 95.875 234.393 95.875M234.287 89.8669H231.362V94.1168H234.287C234.586 94.1502 234.888 94.1202 235.175 94.0287C235.462 93.9371 235.726 93.7861 235.95 93.5856C236.174 93.385 236.354 93.1394 236.476 92.8648C236.599 92.5901 236.663 92.2927 236.663 91.9918C236.663 91.691 236.599 91.3935 236.476 91.1189C236.354 90.8443 236.174 90.5986 235.95 90.3981C235.726 90.1975 235.462 90.0465 235.175 89.955C234.888 89.8635 234.586 89.8335 234.287 89.8669Z" />
<path d="M210.36 15.1366C209.984 14.7579 209.537 14.4575 209.044 14.2528C208.551 14.048 208.022 13.943 207.489 13.9439C206.493 13.9496 205.54 14.3499 204.838 15.0571C204.492 15.4055 204.22 15.8194 204.036 16.2746C203.852 16.7297 203.762 17.217 203.769 17.7078C203.767 18.2395 203.871 18.7663 204.074 19.2577C204.277 19.7491 204.576 20.1953 204.953 20.5705L206.375 21.993L211.809 16.5415L210.36 15.1366Z" />
<path d="M224.753 20.4821C225.127 20.1123 225.425 19.6721 225.628 19.1868C225.831 18.7015 225.936 18.1808 225.937 17.6547C225.932 16.6671 225.549 15.7188 224.868 15.0041C224.52 14.6583 224.106 14.3856 223.65 14.202C223.195 14.0184 222.708 13.9276 222.217 13.935C221.674 13.9272 221.135 14.0297 220.632 14.2362C220.129 14.4427 219.674 14.749 219.293 15.1366L217.861 16.568L223.269 21.9753L224.753 20.4821Z" />
<path d="M214.823 19.563L209.38 25.0145L214.805 30.4306L220.239 24.9791L214.823 19.563Z" />
<path d="M219.373 34.9987C219.747 35.3764 220.193 35.6756 220.685 35.8789C221.176 36.0822 221.703 36.1855 222.235 36.1827C223.223 36.1776 224.171 35.7951 224.886 35.1136C225.534 34.3423 225.898 33.3728 225.92 32.3658C225.923 31.8353 225.822 31.3094 225.622 30.8181C225.422 30.3268 225.127 29.8799 224.753 29.5031L223.242 27.9922L217.8 33.4348L219.373 34.9987Z" />
<path d="M204.891 29.503C204.513 29.8773 204.214 30.3233 204.01 30.8149C203.807 31.3065 203.704 31.8337 203.707 32.3657C203.695 32.861 203.784 33.3535 203.968 33.8135C204.152 34.2735 204.427 34.6914 204.777 35.0417C205.128 35.392 205.546 35.6675 206.006 35.8515C206.466 36.0354 206.958 36.1241 207.453 36.112C207.985 36.1128 208.512 36.0086 209.003 35.8054C209.494 35.6023 209.94 35.3041 210.316 34.928L211.809 33.426L206.393 28.001L204.891 29.503Z" />
<path d="M231.751 8.06811C229.524 5.84325 226.88 4.07886 223.971 2.87566C221.062 1.67246 217.945 1.05403 214.797 1.05567C211.649 1.05731 208.532 1.67899 205.624 2.88522C202.716 4.09145 200.074 5.8586 197.849 8.08578C195.625 10.313 193.86 12.9566 192.657 15.8656C191.454 18.7747 190.835 21.8923 190.837 25.0403C190.839 28.1884 191.46 31.3053 192.666 34.2131C193.873 37.1209 195.64 39.7627 197.867 41.9875C200.094 44.2124 202.738 45.9768 205.647 47.18C208.556 48.3832 211.674 49.0016 214.822 49C217.97 48.9983 221.087 48.3767 223.994 47.1704C226.902 45.9642 229.544 44.197 231.769 41.9699C233.994 39.7427 235.758 37.0991 236.961 34.19C238.164 31.281 238.783 28.1634 238.781 25.0153C238.78 21.8673 238.158 18.7503 236.952 15.8425C235.745 12.9347 233.978 10.293 231.751 8.06811ZM227.89 38.1088C227.142 38.8531 226.254 39.4423 225.278 39.8426C224.301 40.2428 223.255 40.4463 222.2 40.4413C221.105 40.4473 220.021 40.2338 219.01 39.8134C217.999 39.3931 217.083 38.7744 216.316 37.9939L214.805 36.483L213.267 37.9409C212.502 38.7219 211.587 39.341 210.578 39.7615C209.569 40.1819 208.485 40.3951 207.392 40.3883C206.341 40.3884 205.302 40.1804 204.332 39.7763C203.363 39.3723 202.483 38.7802 201.744 38.0343C201.004 37.2884 200.42 36.4034 200.025 35.4305C199.629 34.4575 199.43 33.4159 199.44 32.3657C199.434 31.2711 199.647 30.1864 200.068 29.1757C200.488 28.165 201.107 27.2488 201.887 26.4813L203.389 24.9704L201.923 23.5037C201.142 22.7362 200.523 21.82 200.103 20.8093C199.683 19.7986 199.469 18.7139 199.475 17.6193C199.466 16.5631 199.667 15.5156 200.067 14.538C200.466 13.5604 201.057 12.6723 201.804 11.9254C202.551 11.1785 203.439 10.588 204.416 10.1881C205.394 9.78829 206.442 9.58722 207.498 9.59665C208.592 9.59365 209.676 9.80852 210.686 10.2287C211.696 10.6489 212.613 11.266 213.382 12.0441L214.84 13.4931L216.289 12.0441C217.06 11.2688 217.977 10.6535 218.987 10.2335C219.997 9.81349 221.08 9.59707 222.173 9.59665C223.229 9.58823 224.276 9.79015 225.253 10.1906C226.23 10.5911 227.117 11.1821 227.863 11.9292C229.361 13.444 230.199 15.4892 230.196 17.6193C230.196 18.7129 229.979 19.7958 229.559 20.8056C229.139 21.8154 228.524 22.7323 227.749 23.5037L226.3 24.9527L227.828 26.4813C228.606 27.2504 229.222 28.1671 229.641 29.1776C230.06 30.188 230.272 31.2719 230.267 32.3657C230.23 34.4946 229.383 36.5294 227.899 38.0557" />
<path d="M41.9469 37.6848C41.9469 43.3219 40.5096 47.666 37.6352 50.7172C34.7607 53.7684 30.8672 55.294 25.9547 55.294C21.0127 55.294 17.1221 53.7684 14.283 50.7172C11.4438 47.666 10.0066 43.3219 9.97126 37.6848V2.13086H0.384766V37.3403C0.384766 45.9342 2.74089 52.5844 7.45315 57.2908C12.2655 61.95 18.4327 64.2738 25.9547 64.262C33.4766 64.2502 39.6349 61.8941 44.4296 57.1936C49.1949 52.4813 51.5776 45.8577 51.5776 37.3226V2.13086H41.9469V37.6848Z" />
<path d="M99.8993 31.9239C96.345 30.0365 92.6054 28.5205 88.7401 27.4001L81.7689 25.3944L80.0018 24.7848C79.189 24.4932 78.4645 24.2193 77.8195 23.9543C77.3044 23.7561 76.8101 23.5075 76.3439 23.2121C73.9701 21.5274 72.7832 19.7014 72.7832 17.7341C72.7773 16.6014 73.0677 15.4868 73.6257 14.501C74.1837 13.5153 74.9898 12.6926 75.964 12.1147C78.0845 10.6951 81.1799 9.98241 85.2501 9.97652C92.0987 10.026 98.7974 11.9876 104.591 15.6401V6.05357C98.6749 2.61101 91.9257 0.862571 85.0822 0.999674C78.2907 0.999674 72.9011 2.51054 68.9133 5.53228C67.0078 6.91296 65.4684 8.73822 64.429 10.8494C63.3896 12.9605 62.8817 15.2936 62.9494 17.6457C62.9494 23.2239 65.0404 27.3176 69.2225 29.927C71.1687 31.1092 73.2076 32.1316 75.319 32.9841C77.2982 33.7351 79.94 34.5833 83.271 35.5111L84.4903 35.8557C87.3494 36.5988 90.1468 37.5618 92.8575 38.736C93.9973 39.1673 95.0573 39.7854 95.9941 40.565C96.8405 41.2459 97.5229 42.1085 97.9909 43.0888C98.4589 44.0692 98.7005 45.1422 98.6977 46.2285C98.6977 49.0205 97.3724 51.2206 94.7306 52.8463C92.0888 54.472 88.6871 55.2937 84.5609 55.2937C80.2705 55.2735 76.0193 54.4742 72.0146 52.9346C68.44 51.6563 65.1132 49.7702 62.1807 47.3595V57.7323C68.1593 62.0912 75.7991 64.2706 85.0999 64.2706C91.7795 64.2706 97.3577 62.6419 101.834 59.3846C103.972 57.8982 105.705 55.9003 106.873 53.5731C108.041 51.2458 108.608 48.6632 108.523 46.0606C108.181 39.5813 105.307 34.869 99.8993 31.9239Z" />
<path d="M167.076 27.9301H165.308L150.536 27.9477V37.5342H165.282V45.2653C165.287 47.1188 164.729 48.93 163.681 50.459C162.633 51.988 161.146 53.1625 159.415 53.8269C156.586 54.858 153.591 55.3611 150.58 55.3112C147.699 55.3671 144.835 54.849 142.156 53.7871C139.478 52.7253 137.037 51.1409 134.976 49.1264C134.711 48.8613 134.481 48.5786 134.234 48.3047C131.08 44.7622 129.186 40.2769 128.844 35.5462C128.756 34.6627 128.703 33.7085 128.703 32.7454C128.703 26.1306 130.853 20.6702 135.153 16.3644C139.453 12.0586 144.913 9.93808 151.534 10.0029C158.053 9.98844 164.416 11.9982 169.744 15.7548V6.23012C164.637 2.74305 158.364 0.999512 150.924 0.999512C141.694 0.999512 134.054 3.9918 128.005 9.97636C121.956 15.9609 118.907 23.5123 118.86 32.6305C118.86 40.2055 120.946 46.7172 125.116 52.1658C125.978 53.2977 126.914 54.372 127.917 55.3819C130.292 57.6989 133.021 59.6226 136.001 61.0808C140.553 63.2435 145.541 64.3317 150.58 64.2616C155.388 64.2992 160.152 63.3332 164.566 61.4254L165.353 61.072C168.199 59.7517 170.608 57.6455 172.297 55.0016C173.986 52.3577 174.884 49.2862 174.886 46.1488V27.9301H167.076Z" />
</svg>

<svg width="239" height="102" viewBox="0 0 239 102" xmlns="http://www.w3.org/2000/svg"><path d="M238.819 75.995H.332v3.631h238.487v-3.63zM6.331 100.894H4.75L.332 88.126h2.147l3.066 9.286 3.075-9.286h2.13l-4.42 12.768zm6.309-12.768h2.023v12.768H12.64V88.126zm5.566 12.768V88.126h8.518v1.767H20.22v3.729h5.548v1.767H20.22v3.835h6.503v1.767l-8.518-.097zm19.518 0l-6.185-8.986v8.986h-1.988V88.126h1.847l6.184 8.968v-8.968h2.024v12.768h-1.882zm13.58 0l-6.185-8.986v8.986h-1.997V88.126h1.847l6.185 8.968v-8.968h2.014v12.768h-1.864zm13.041 0l-.883-2.563H58.16l-.883 2.563h-2.165l4.886-12.768h1.626l4.886 12.768h-2.165zm-3.534-9.879l-2.076 5.664h4.1l-2.024-5.663zm12.131-2.889h2.023v12.768h-1.988l-.035-12.768zm13.74 12.768l-6.186-8.986v8.986h-1.961V88.126h1.855l6.185 8.968v-8.968h2.023v12.768h-1.917zm8.932.106a6.187 6.187 0 01-4.718-1.688l1.352-1.272a4.487 4.487 0 003.401 1.219c1.767 0 2.757-.716 2.757-1.953a1.652 1.652 0 00-.53-1.325 2.324 2.324 0 00-1.458-.539l-1.573-.212a4.708 4.708 0 01-2.527-1.025 3.101 3.101 0 01-.972-2.439c0-2.226 1.688-3.746 4.418-3.746a5.673 5.673 0 014.135 1.45l-1.29 1.219a4.02 4.02 0 00-2.898-.99c-1.573 0-2.439.884-2.439 1.997a1.476 1.476 0 00.513 1.184c.436.327.951.532 1.493.592l1.52.212a4.497 4.497 0 012.492.954 3.279 3.279 0 011.077 2.65c0 2.35-1.996 3.747-4.788 3.747m12.113 0c-2.713 0-4.771-1.767-4.771-4.418v-8.49h2.014v8.375a2.768 2.768 0 002.761 2.61 2.767 2.767 0 002.762-2.61v-8.376h2.085v8.465c0 2.65-2.077 4.417-4.789 4.417m15.48-.106l-2.801-5.363h-2.527v5.381h-2.024V88.126h5.169c2.527 0 4.135 1.555 4.135 3.729a3.38 3.38 0 01-2.65 3.393l3.066 5.646-2.368.008zm-2.342-11.026h-2.995v3.993h2.995c1.352 0 2.271-.733 2.271-1.988a2.013 2.013 0 00-.678-1.52 2.003 2.003 0 00-1.593-.485zm14.941 11.026l-.884-2.562h-5.301l-.883 2.562h-2.174l4.886-12.767h1.635l4.886 12.767h-2.165zm-3.534-9.878l-2.077 5.664h4.1l-2.023-5.664zm15.762 9.878l-6.185-8.985v8.985h-1.943V88.126h1.855l6.185 8.968v-8.968h2.023v12.768l-1.935.008zm9.719.106a4.964 4.964 0 01-3.534-1.36c-1.307-1.255-1.29-2.65-1.29-5.134 0-2.482 0-3.87 1.29-5.124a4.93 4.93 0 013.534-1.36 5.023 5.023 0 013.729 1.501l-1.352 1.308a3.072 3.072 0 00-2.377-1.078 2.712 2.712 0 00-1.961.777c-.654.68-.786 1.414-.786 3.976 0 2.563.132 3.305.786 3.985a2.706 2.706 0 001.961.769 3.05 3.05 0 002.377-1.078l1.352 1.316a5.02 5.02 0 01-3.729 1.502zm6.494-.106V88.126h8.527v1.767h-6.503v3.729h5.548v1.767h-5.548v3.835h6.503v1.767l-8.527-.089zm23.856-1.36a5.216 5.216 0 01-7.139.106c-1.307-1.255-1.29-2.65-1.29-5.134 0-2.482 0-3.87 1.29-5.124a4.882 4.882 0 013.534-1.36 5.159 5.159 0 014.021 1.678l-1.37 1.316a3.417 3.417 0 00-2.651-1.263 2.78 2.78 0 00-1.988.795c-.653.68-.786 1.396-.786 3.958 0 2.563.133 3.305.786 3.985a2.97 2.97 0 004.118-.123c.47-.57.704-1.297.654-2.033v-.698h-2.784v-1.652h4.807v1.926a4.728 4.728 0 01-1.175 3.623m11.486 1.36l-2.863-5.363h-2.527v5.381h-2.023V88.126h5.133c2.527 0 4.135 1.555 4.135 3.729a3.394 3.394 0 01-2.65 3.393l3.066 5.646-2.271.008zm-2.333-11.026h-2.995v3.993h2.995a2.016 2.016 0 001.594-3.512 2.015 2.015 0 00-1.594-.481zm15.074 9.763a4.961 4.961 0 01-3.535 1.361 4.897 4.897 0 01-3.534-1.361c-1.307-1.255-1.29-2.65-1.29-5.133s0-3.87 1.29-5.125a4.855 4.855 0 013.534-1.36 4.925 4.925 0 013.535 1.36c1.307 1.255 1.272 2.65 1.272 5.124 0 2.475 0 3.88-1.272 5.134zm-1.538-9.092a2.87 2.87 0 00-3.967 0c-.663.68-.786 1.396-.786 3.959 0 2.562.123 3.286.786 3.967a2.899 2.899 0 003.967 0c.654-.68.787-1.396.787-3.968 0-2.57-.133-3.277-.787-3.958zM221.219 101c-2.712 0-4.771-1.767-4.771-4.418v-8.456h2.014v8.376a2.768 2.768 0 002.762 2.61 2.764 2.764 0 002.761-2.61v-8.376h2.023v8.465c0 2.65-2.076 4.417-4.789 4.417m13.174-5.124h-3.031v5.018h-2.023V88.126h5.054c2.606 0 4.276 1.652 4.276 3.87s-1.67 3.879-4.276 3.879m-.106-6.008h-2.925v4.25h2.925a2.139 2.139 0 100-4.25zm-23.927-74.73a4.034 4.034 0 00-2.871-1.193 3.766 3.766 0 00-2.651 1.113 3.688 3.688 0 00-1.069 2.65 4.02 4.02 0 001.184 2.863l1.422 1.423 5.434-5.451-1.449-1.405zm14.393 5.345a3.986 3.986 0 001.184-2.827 3.872 3.872 0 00-1.069-2.65 3.675 3.675 0 00-2.651-1.07 4.02 4.02 0 00-2.924 1.202l-1.432 1.431 5.408 5.407 1.484-1.493zm-9.93-.919l-5.443 5.452 5.425 5.416 5.434-5.452-5.416-5.416zm4.55 15.436a3.99 3.99 0 002.862 1.184 3.87 3.87 0 002.651-1.07 4.42 4.42 0 001.034-2.747 4.044 4.044 0 00-1.167-2.863l-1.511-1.51-5.442 5.442 1.573 1.564zm-14.482-5.496a4.006 4.006 0 00-1.184 2.863 3.66 3.66 0 003.746 3.746 4.038 4.038 0 002.863-1.184l1.493-1.502-5.416-5.425-1.502 1.502z"/><path d="M231.751 8.068a23.972 23.972 0 10-33.883 33.919A23.972 23.972 0 00231.75 8.068zm-3.861 30.04a8.016 8.016 0 01-5.69 2.333 8.189 8.189 0 01-5.884-2.447l-1.511-1.511-1.538 1.458a8.157 8.157 0 01-5.875 2.447 7.952 7.952 0 01-7.952-8.022 8.179 8.179 0 012.447-5.885l1.502-1.51-1.466-1.467a8.178 8.178 0 01-2.448-5.885 7.957 7.957 0 014.941-7.43 7.945 7.945 0 013.082-.592 8.242 8.242 0 015.884 2.447l1.458 1.45 1.449-1.45a8.299 8.299 0 015.884-2.447 7.954 7.954 0 015.69 2.332 8.075 8.075 0 012.333 5.69 8.298 8.298 0 01-2.447 5.885l-1.449 1.449 1.528 1.528a8.215 8.215 0 012.439 5.885 8.371 8.371 0 01-2.368 5.69m-185.952-.371c0 5.637-1.437 9.981-4.312 13.032-2.874 3.051-6.768 4.577-11.68 4.577-4.942 0-8.833-1.526-11.672-4.577-2.84-3.051-4.276-7.395-4.312-13.032V2.13H.385v35.21c0 8.593 2.356 15.243 7.068 19.95 4.812 4.659 10.98 6.983 18.502 6.971 7.522-.012 13.68-2.368 18.475-7.068 4.765-4.713 7.148-11.336 7.148-19.871V2.13h-9.631v35.554zM99.9 31.924A58.55 58.55 0 0088.74 27.4l-6.971-2.006-1.767-.61a52.049 52.049 0 01-2.182-.83 8.378 8.378 0 01-1.476-.742c-2.374-1.685-3.56-3.51-3.56-5.478a6.495 6.495 0 013.18-5.62c2.12-1.419 5.216-2.132 9.286-2.137a36.764 36.764 0 0119.341 5.663V6.054A37.303 37.303 0 0085.082 1c-6.791 0-12.18 1.51-16.169 4.532a14.446 14.446 0 00-5.964 12.114c0 5.578 2.091 9.672 6.273 12.281a42.112 42.112 0 006.097 3.057c1.98.751 4.621 1.6 7.952 2.527l1.22.345a57.336 57.336 0 018.367 2.88c1.14.431 2.2 1.05 3.136 1.829a7.245 7.245 0 012.704 5.663c0 2.792-1.326 4.993-3.967 6.618-2.642 1.626-6.044 2.448-10.17 2.448-4.29-.02-8.542-.82-12.546-2.36a32.965 32.965 0 01-9.834-5.575v10.373c5.978 4.36 13.618 6.539 22.919 6.539 6.68 0 12.258-1.63 16.734-4.886a15.604 15.604 0 006.689-13.324c-.342-6.48-3.216-11.192-8.624-14.137zm67.176-3.994h-1.768l-14.772.018v9.586h14.746v7.731a9.142 9.142 0 01-5.867 8.562 24.61 24.61 0 01-8.835 1.484 21.72 21.72 0 01-15.604-6.185c-.265-.265-.495-.547-.742-.821a21.519 21.519 0 01-5.39-12.759 28.534 28.534 0 01-.141-2.8c0-6.615 2.15-12.076 6.45-16.382 4.3-4.305 9.76-6.426 16.381-6.361a31.48 31.48 0 0118.21 5.752V6.23C164.637 2.743 158.364 1 150.924 1c-9.23 0-16.87 2.992-22.919 8.976-6.049 5.985-9.098 13.536-9.145 22.654 0 7.575 2.086 14.087 6.256 19.536a32.552 32.552 0 002.801 3.216 31.239 31.239 0 008.084 5.699 32.906 32.906 0 0014.579 3.18 34.572 34.572 0 0013.986-2.836l.787-.353a16.46 16.46 0 009.533-14.923V27.93h-7.81z"/></svg>
